!!!COM: Britten, (Edward) Benjamin
!!!OTL: Les Illuminations (The Illuminations) for Solo Voice and String Orchestra, op. 18
!!!OMV: IIIb: Antique
!!!example: 807
!!!work: Bri-14
**kern	**dynam	**kern	**dynam	**kern	**dynam	**kern	**dynam	**kern	**dynam
*part5	*part5	*part4	*part4	*part3	*part3	*part2	*part2	*part1	*part1
*staff5	*	*staff4	*	*staff3	*	*staff2	*	*staff1	*
*I"Contrabass	*	*I"Violoncello	*	*I"Viola	*	*I"Violin I	*	*I"Treble Solo	*
*I'Cb.	*	*I'Vc.	*	*I'Vla.	*	*I'Vln. I	*	*I'Tr. Solo	*
*clefF4	*	*clefF4	*	*clefC3	*	*clefG2	*	*clefG2	*
*k[b-e-]	*	*k[b-e-]	*	*k[b-e-]	*	*k[b-e-]	*	*k[b-e-]	*
*B-:	*	*B-:	*	*B-:	*	*B-:	*	*B-:	*
*M6/8	*	*M6/8	*	*M6/8	*	*M6/8	*	*M6/8	*
*MM121	*	*MM121	*	*MM121	*	*MM121	*	*MM121	*
=1	=1	=1	=1	=1	=1	=1	=1	=1	=1
2.r	.	8r	.	8r	.	2.r	.	2.r	.
!	!	!LO:TX:a:t=pizz.	!	!LO:TX:a:t=pizz.	!	!	!	!	!
.	.	8BB-L 8F 8d	ppp	8DL 8B- 8f	ppp	.	.	.	.
.	.	8BB-J 8F 8d	.	8DJ 8B- 8f	.	.	.	.	.
.	.	8BB-L 8F 8d	.	8DL 8B- 8f	.	.	.	.	.
.	.	8BB- 8F 8d	.	8D 8B- 8f	.	.	.	.	.
.	.	8BB-J 8F 8d	.	8DJ 8B- 8f	.	.	.	.	.
=2	=2	=2	=2	=2	=2	=2	=2	=2	=2
2.r	.	8r	.	8r	.	2.r	.	2.r	.
.	.	16BB-LL 16F 16d	.	16DLL 16B- 16f	.	.	.	.	.
.	.	16BB-J 16F 16d	.	16DJ 16B- 16f	.	.	.	.	.
.	.	8BB-J 8F 8d	.	8DJ 8B- 8f	.	.	.	.	.
.	.	8BB-L 8F 8d	.	8DL 8B- 8f	.	.	.	.	.
.	.	8BB- 8F 8d	.	8D 8B- 8f	.	.	.	.	.
.	.	16BB-L 16F 16d	.	16DL 16B- 16f	.	.	.	.	.
.	.	16BB-JJ 16F 16d	.	16DJJ 16B- 16f	.	.	.	.	.
=3	=3	=3	=3	=3	=3	=3	=3	=3	=3
4r	.	8BB-L 8F 8d	.	8DL 8B- 8f	.	8r	.	8r	.
.	.	8BB- 8F 8d	.	8D 8B- 8f	.	8f~L	p	8fL	.
8r	.	8BB-J 8F 8d	.	8DJ 8B- 8f	.	8d~J	.	8dJ	.
!LO:TX:a:t=pizz.	!	!	!	!	!	!	!	!	!
8FFF	p	8BB-L 8F 8d	.	8DL 8B- 8f	.	8.b-~L	.	16%3b-L	<
8r	.	8BB- 8F 8d	.	8D 8B- 8f	.	.	.	.	.
.	.	.	.	.	.	8.f~J	.	16%3fJ	[[
8r	.	8BB-J 8F 8d	.	8DJ 8B- 8f	.	.	.	.	.
=4	=4	=4	=4	=4	=4	=4	=4	=4	=4
8BBB-^	.	8r	.	8r	.	(8dd	<	[2.ff	.
8r	.	16BB-LL 16F 16d	.	16DLL 16B- 16f	.	4ff)	.	.	.
.	.	16BB-J 16F 16d	.	16DJ 16B- 16f	.	.	.	.	.
8r	.	8BB-J 8F 8d	.	8DJ 8B- 8f	.	.	.	.	.
4.r	.	8BB-L 8F 8d	.	8DL 8B- 8f	.	(4ee-	[	.	.
.	.	8BB- 8F 8d	.	8D 8B- 8f	.	.	.	.	.
.	.	16BB-L 16F 16d	.	16DL 16B- 16f	.	8dd)	.	.	.
.	.	16BB-JJ 16F 16d	.	16DJJ 16B- 16f	.	.	.	.	.
=5	=5	=5	=5	=5	=5	=5	=5	=5	=5
4r	.	8BB-L 8F 8d	.	8DL 8B- 8f	.	(8cc	<	2.ff_	.
.	.	8BB- 8F 8d	.	8D 8B- 8f	.	4ee-)	.	.	.
8r	.	8BB-J 8F 8d	.	8DJ 8B- 8f	.	.	.	.	.
8FFF	.	8BB-L 8F 8d	.	8DL 8B- 8f	.	(4dd	[	.	.
8r	.	8BB- 8F 8d	.	8D 8B- 8f	.	.	.	.	.
8r	.	8BB-J 8F 8d	.	8DJ 8B- 8f	.	8cc)	.	.	.
=6	=6	=6	=6	=6	=6	=6	=6	=6	=6
8BBB-^	.	8r	.	8r	.	8.b-~L	.	16%3ff]	.
8r	.	16BB-LL 16F 16d	.	16DLL 16B- 16f	.	.	.	.	.
.	.	16BB-J 16F 16d	.	16DJ 16B- 16f	.	8.a~J	.	16%3r	.
8r	.	8BB-J 8F 8d	.	8DJ 8B- 8f	.	.	.	.	.
4.r	.	8BB-L 8F 8d	.	8DL 8B- 8f	.	[4.g~	.	16%3r	.
.	.	8BB- 8F 8d	.	8D 8B- 8f	.	.	.	.	.
.	.	.	.	.	.	.	.	16%3dd	p
.	.	16BB-L 16F 16d	.	16DL 16B- 16f	.	.	.	.	.
.	.	16BB-JJ 16F 16d	.	16DJJ 16B- 16f	.	.	.	.	.
=7	=7	=7	=7	=7	=7	=7	=7	=7	=7
2.r	.	8BB-L 8F 8d	.	8DL 8B- 8f	.	8g]	.	8ffL	.
.	.	8BB- 8F 8d	.	8D 8B- 8f	.	8r	.	8dd	.
.	.	8BB-J 8F 8d	.	8DJ 8B- 8f	.	8r	.	8b-J	.
.	.	8BB-L 8F 8d	.	8DL 8B- 8f	.	8r	.	8ddL	.
.	.	8BB- 8F 8d	.	8D 8B- 8f	.	8r	.	8dd	.
.	.	8BB-J 8F 8d	.	8DJ 8B- 8f	.	8f~	f	8b-J	.
=8	=8	=8	=8	=8	=8	=8	=8	=8	=8
4r	.	8BB-L 8F 8d	.	8DL 8B- 8f	.	8d~L	.	8ddL	.
.	.	8BB- 8F 8d	.	8D 8B- 8f	.	8b-~	.	8b-	.
8r	.	8BB-J 8F 8d	.	8DJ 8B- 8f	.	8f~J	.	8fJ	.
8FFF	.	8BB-L 8F 8d	.	8DL 8B- 8f	.	8.dd~L	.	8b-L	.
8r	.	8BB- 8F 8d	.	8D 8B- 8f	.	.	.	8f	.
.	.	.	.	.	.	8.b-~J	.	.	.
8r	.	8BB-J 8F 8d	.	8DJ 8B- 8f	.	.	.	16dL	<
.	.	.	.	.	.	.	.	16dJJ	[[
=9	=9	=9	=9	=9	=9	=9	=9	=9	=9
8BBB-^	.	8r	.	8r	.	(8ff	<	[4.f	>
8r	.	16BB-LL 16F 16d	.	16DLL 16B- 16f	.	4aa-X)	.	.	.
.	.	16BB-J 16F 16d	.	16DJ 16B- 16f	.	.	.	.	.
8r	.	8BB-J 8F 8d	.	8DJ 8B- 8f	.	.	.	.	.
4.r	.	8BB-L 8F 8d	.	8DL 8B- 8f	.	(4gg	[	16%3fL]	]
.	.	8BB- 8F 8d	.	8D 8B- 8f	.	.	.	.	.
.	.	.	.	.	.	.	.	16%3fJ	.
.	.	16BB-L 16F 16d	.	16DL 16B- 16f	.	8ff)	.	.	.
.	.	16BB-JJ 16F 16d	.	16DJJ 16B- 16f	.	.	.	.	.
=10	=10	=10	=10	=10	=10	=10	=10	=10	=10
4r	.	8BB-L 8F 8d	.	8DL 8B- 8f	.	(8ee-	<	16%3r	.
.	.	8BB- 8F 8d	.	8D 8B- 8f	.	4gg)	.	.	.
.	.	.	.	.	.	.	.	16%3f	.
8r	.	8BB-J 8F 8d	.	8DJ 8B- 8f	.	.	.	.	.
8FFF	.	8BB-L 8F 8d	.	8DL 8B- 8f	.	(4ff	[	[4.dd	.
8r	.	8BB- 8F 8d	.	8D 8B- 8f	.	.	.	.	.
8r	.	8BB-J 8F 8d	.	8DJ 8B- 8f	.	8ee-)	.	.	.
=	=	=	=	=	=	=	=	=	=
*-	*-	*-	*-	*-	*-	*-	*-	*-	*-
!!!system-decoration: s1[(s2,s3,s4,s5)]
!!!CDT: 1913/11/22-1976/12/04
!!!CBL: Lowestoft, England
!!!CDL: Aldeburgh, England
!!!CNT: English
!!!AGN: Vocal; Solo
!!!MCN: Neel, Boyd
!!!MDT: 1940/01/30
!!!MGN: Boyd Neel Orchestra
!!!MLC: London, United Kingdom
!!!MPD: 1940
!!!MPN: Wyss, Sophie
!!!ODT: 1939
!!!PDT: 1940
!!!excerpt-start-measure: 1
!!!excerpt-end-measure: 10
!!!excerpt-start-time: 0:00
!!!excerpt-end-time: 0:21
!!!EEV: 2020/01/27
!!!ONB: Converted from MusicXML on 2020/01/27
